X:847
T:Padraig O'Keefe's 2
R:Slide
O:Ireland
B:Irish Fiddle Book
S:Ricker's abc
Z:Transcription:???, chords:Mike Long
M:12/8
L:1/8
K:D
"D"F2A ABA "G"G2B BAG|"D"F2A A2F "A"E2F D2E|"D"F2A ABA "G"G2B BAG|\
[1 "A"e2d cBA "G"d2A B2A:|
[2 "A"e2d cde "G"d2A d2e|]\
"D"f2A f2A "G"g2B g2f|"A"e2d c2d e2d cBA|"D"f2A f2A "G"g2B g2f|
"A"e2d cde "G"d2A d2e|\
"D"f2A f2A "G"g2B g2f|"A"e2d c2d e3- efg|"D"f2A f2A "G"g2B g2f|"A"e2d cde "G"d2A B2A|]
